Obsidian/status/22s/nomachine-disabled.svg

<svg height="22" width="22" xmlns="http://www.w3.org/2000/svg"><path d="m4 3c-.554 0-1 .45-1 1v14c0 .55.446 1 1 1h14c.55 0 1-.45 1-1v-14c0-.55-.45-1-1-1zm1 4h2v5h-2zm3 0h8v8h-2v-5h-1v5h-2v-5h-1v5h-2zm-3 6h2v2h-2z" fill="#d3dae3" opacity=".3"/></svg>

<svg xmlns="http://www.w3.org/2000/svg" width="22" height="22" version="1">
 <defs>
  <style id="current-color-scheme" type="text/css">
   .ColorScheme-Text { color:#d3dae3; } .ColorScheme-Highlight { color:#5294e2; }
  </style>
 </defs>
 <path style="opacity:0.3;fill:currentColor" class="ColorScheme-Text" d="M 4,3 C 3.446,3 3,3.45 3,4 V 18 C 3,18.55 3.446,19 4,19 H 18 C 18.55,19 19,18.55 19,18 V 4 C 19,3.45 18.55,3 18,3 Z M 5,7 H 7 V 12 H 5 Z M 8,7 H 16 V 15 H 14 V 10 H 13 V 15 H 11 V 10 H 10 V 15 H 8 Z M 5,13 H 7 V 15 H 5 Z"/>
</svg>
